svg/logo-google-translate.svg

<svg width="175" height="16" fill="none" xmlns="http://www.w3.org/2000/svg"><path fill-rule="evenodd" clip-rule="evenodd" d="M128.789 4.79395C128.051 4.79395 127.023 5.31595 126.733 6.12728H126.675V4.90261H125.4V11.9999H126.733V8.18395C126.733 6.87995 127.66 6.11261 128.572 6.11261 128.862 6.11261 129.094 6.14128 129.282 6.21395L129.789 4.96861C129.514 4.85261 129.224 4.79395 128.789 4.79395ZM152.801 1.4606H154.133V11.9999H152.801V1.4606ZM148.658 4.79395C147.225 4.79395 145.891 5.59461 145.891 6.84461 145.891 8.05328 147.1 8.60061 147.732 8.75528L149.164 9.09261C149.895 9.27528 150.146 9.65461 150.146 10.0059 150.146 10.5813 149.529 10.9579 148.728 10.9579 147.899 10.9579 147.184 10.5539 146.819 9.66461L145.667 10.1426C146.074 11.1433 147.057 12.1273 148.715 12.1273 150.33 12.1273 151.467 11.1859 151.467 9.96395 151.467 9.12061 150.892 8.27795 149.529 7.95461L148.125 7.63128C147.577 7.50528 147.213 7.26661 147.213 6.83061 147.213 6.26861 147.885 5.96328 148.616 5.96328 149.29 5.96328 149.963 6.23061 150.231 6.87661L151.354 6.41328C150.933 5.35928 149.852 4.79395 148.658 4.79395ZM158.579 10.9286C157.904 10.9286 157.071 10.5813 157.071 9.85128 157.071 9.21928 157.679 8.52861 159.042 8.52861 160.138 8.52861 160.667 8.93795 160.667 8.93795 160.667 10.0619 159.604 10.9286 158.579 10.9286ZM158.859 4.79395C157.131 4.79395 156.158 5.79995 155.919 6.43195L157.099 6.93795C157.338 6.29195 158.171 5.99195 158.887 5.99195 159.857 5.99195 160.667 6.59395 160.667 7.68528V7.88261C160.399 7.72795 159.745 7.46061 158.817 7.46061 157.202 7.46061 155.701 8.26395 155.701 9.82328 155.701 11.2559 156.963 12.1273 158.367 12.1273 159.548 12.1273 160.231 11.4913 160.611 10.9153H160.667V11.9999H161.922V7.74395C161.922 5.80528 160.545 4.79395 158.859 4.79395ZM133.323 10.9286C132.649 10.9286 131.815 10.5813 131.815 9.85128 131.815 9.21928 132.424 8.52861 133.787 8.52861 134.882 8.52861 135.411 8.93795 135.411 8.93795 135.411 10.0619 134.349 10.9286 133.323 10.9286ZM133.604 4.79395C131.876 4.79395 130.902 5.79995 130.663 6.43195L131.843 6.93795C132.083 6.29195 132.915 5.99195 133.632 5.99195 134.601 5.99195 135.411 6.59395 135.411 7.68528V7.88261C135.144 7.72795 134.489 7.46061 133.561 7.46061 131.946 7.46061 130.446 8.26395 130.446 9.82328 130.446 11.2559 131.707 12.1273 133.112 12.1273 134.292 12.1273 134.975 11.4913 135.355 10.9153H135.411V11.9999H136.667V7.74395C136.667 5.80528 135.29 4.79395 133.604 4.79395ZM169.398 7.62328C169.655 6.61995 170.425 5.99195 171.396 5.99195 172.894 5.99195 173.407 7.02728 173.45 7.62328H169.398ZM171.424 4.79395C169.37 4.79395 168 6.50728 168 8.46061 168 10.5399 169.427 12.1273 171.567 12.1273 173.179 12.1273 174.207 11.2279 174.62 10.2446L173.45 9.76728C173.079 10.6386 172.309 10.9286 171.538 10.9286 170.454 10.9286 169.384 10.1606 169.313 8.70728H174.834C174.834 8.70728 174.849 8.55861 174.849 8.46061 174.849 6.24061 173.507 4.79395 171.424 4.79395ZM141.778 4.79395C140.807 4.79395 139.909 5.35861 139.533 6.00995H139.475V4.90261H138.2V11.9999H139.533V8.19728C139.533 7.11128 140.243 6.00995 141.401 6.00995 142.415 6.00995 143.154 6.50261 143.154 7.97995V11.9999H144.487V7.77795C144.487 6.02528 143.589 4.79395 141.778 4.79395ZM165.399 2.79395H164.067V4.90261H162.821V6.12995H164.067V9.85328C164.067 11.3019 164.863 12.1273 166.355 12.1273 166.804 12.1273 167.123 12.0693 167.427 11.9393L166.964 10.7946C166.775 10.8813 166.601 10.9106 166.355 10.9106 165.733 10.9106 165.399 10.5486 165.399 9.75128V6.12995H167.137V4.90261H165.399V2.79395ZM124.95 1.4606H117.733V2.82727H120.667V11.9939H122.017V2.82727H124.95V1.4606ZM72.16 5.58594V7.22461H76.082C75.9647 8.14661 75.6574 8.81994 75.1894 9.28794 74.618 9.85861 73.7254 10.4879 72.16 10.4879 69.7447 10.4879 67.8574 8.54194 67.8574 6.12727 67.8574 3.71261 69.7447 1.76661 72.16 1.76661 73.462 1.76661 74.4134 2.27861 75.116 2.93727L76.272 1.78061C75.2914.844607 73.9894.127274 72.16.127274 68.8527.127274 66.072 2.81994 66.072 6.12727 66.072 9.43461 68.8527 12.1273 72.16 12.1273 73.9447 12.1273 75.2914 11.5419 76.3454 10.4446 77.428 9.36127 77.7647 7.83927 77.7647 6.60994 77.7647 6.22994 77.7354 5.87861 77.6767 5.58594H72.16ZM82.6666 4.25461C80.5253 4.25461 78.7793 5.88328 78.7793 8.12727 78.7793 10.3566 80.5253 11.9999 82.6666 11.9999 84.8086 11.9999 86.554 10.3566 86.554 8.12727 86.554 5.88328 84.8086 4.25461 82.6666 4.25461ZM82.6666 10.4739C81.4933 10.4739 80.4806 9.50594 80.4806 8.12727 80.4806 6.73394 81.4933 5.77994 82.6666 5.77994 83.84 5.77994 84.8526 6.73394 84.8526 8.12727 84.8526 9.50594 83.84 10.4739 82.6666 10.4739ZM101.72 5.12061H101.661C101.279 4.66528 100.546 4.25461 99.622 4.25461 97.686 4.25461 96 5.94127 96 8.12727 96 10.2979 97.686 11.9999 99.622 11.9999 100.546 11.9999 101.279 11.5893 101.661 11.1199H101.72V11.6613C101.72 13.1426 100.928 13.9346 99.6513 13.9346 98.61 13.9346 97.9647 13.1866 97.7007 12.5559L96.2193 13.1719C96.6447 14.1986 97.774 15.4606 99.6513 15.4606 101.647 15.4606 103.333 14.2873 103.333 11.4266V4.45394H101.72V5.12061ZM99.7693 10.4739C98.596 10.4739 97.702 9.47661 97.702 8.12727 97.702 6.76328 98.596 5.77994 99.7693 5.77994 100.929 5.77994 101.837 6.77794 101.837 8.14194 101.837 9.49127 100.929 10.4739 99.7693 10.4739ZM91.3334 4.25461C89.192 4.25461 87.446 5.88328 87.446 8.12727 87.446 10.3566 89.192 11.9999 91.3334 11.9999 93.4754 11.9999 95.2207 10.3566 95.2207 8.12727 95.2207 5.88328 93.4754 4.25461 91.3334 4.25461ZM91.3334 10.4739C90.16 10.4739 89.148 9.50594 89.148 8.12727 89.148 6.73394 90.16 5.77994 91.3334 5.77994 92.5067 5.77994 93.5194 6.73394 93.5194 8.12727 93.5194 9.50594 92.5067 10.4739 91.3334 10.4739ZM104.667.287277H106.34V11.9999H104.667V.287277ZM111.51 10.4739C110.645 10.4739 110.029 10.0786 109.632 9.30127L114.81 7.15928 114.634 6.71927C114.311 5.85394 113.329 4.25461 111.319 4.25461 109.324 4.25461 107.667 5.82461 107.667 8.12727 107.667 10.2986 109.309 11.9999 111.51 11.9999 113.285 11.9999 114.311 10.9146 114.737 10.2833L113.417 9.40328C112.977 10.0493 112.375 10.4739 111.51 10.4739ZM111.384 5.70594C112.073 5.70594 112.656 6.05661 112.851 6.55994L109.353 8.00994C109.353 6.37727 110.508 5.70594 111.384 5.70594Z" fill="currentColor"/><g fill="currentColor"><path d="M6.17578 8.90039C6.17578 9.86523 5.95508 10.6426 5.51367 11.2324 5.07227 11.8223 4.47461 12.1172 3.7207 12.1172 2.95117 12.1172 2.3457 11.873 1.9043 11.3848V14.4375H.820312V5.66016H1.81055L1.86328 6.36328C2.30469 5.81641 2.91797 5.54297 3.70312 5.54297 4.46484 5.54297 5.06641 5.83008 5.50781 6.4043 5.95312 6.97852 6.17578 7.77734 6.17578 8.80078V8.90039ZM5.0918 8.77734C5.0918 8.0625 4.93945 7.49805 4.63477 7.08398 4.33008 6.66992 3.91211 6.46289 3.38086 6.46289 2.72461 6.46289 2.23242 6.75391 1.9043 7.33594V10.3652C2.22852 10.9434 2.72461 11.2324 3.39258 11.2324 3.91211 11.2324 4.32422 11.0273 4.62891 10.6172 4.9375 10.2031 5.0918 9.58984 5.0918 8.77734ZM7.27148 8.77148C7.27148 8.15039 7.39258 7.5918 7.63477 7.0957 7.88086 6.59961 8.2207 6.2168 8.6543 5.94727 9.0918 5.67773 9.58984 5.54297 10.1484 5.54297 11.0117 5.54297 11.709 5.8418 12.2402 6.43945 12.7754 7.03711 13.043 7.83203 13.043 8.82422V8.90039C13.043 9.51758 12.9238 10.0723 12.6855 10.5645 12.4512 11.0527 12.1133 11.4336 11.6719 11.707 11.2344 11.9805 10.7305 12.1172 10.1602 12.1172 9.30078 12.1172 8.60352 11.8184 8.06836 11.2207 7.53711 10.623 7.27148 9.83203 7.27148 8.84766V8.77148ZM8.36133 8.90039C8.36133 9.60352 8.52344 10.168 8.84766 10.5938 9.17578 11.0195 9.61328 11.2324 10.1602 11.2324 10.7109 11.2324 11.1484 11.0176 11.4727 10.5879 11.7969 10.1543 11.959 9.54883 11.959 8.77148 11.959 8.07617 11.793 7.51367 11.4609 7.08398 11.1328 6.65039 10.6953 6.43359 10.1484 6.43359 9.61328 6.43359 9.18164 6.64648 8.85352 7.07227 8.52539 7.49805 8.36133 8.10742 8.36133 8.90039ZM20.0156 10.5059 21.2344 5.66016H22.3184L20.4727 12H19.5938L18.0527 7.19531 16.5527 12H15.6738L13.834 5.66016H14.9121L16.1602 10.4062 17.6367 5.66016H18.5098L20.0156 10.5059ZM26.0566 12.1172C25.1973 12.1172 24.498 11.8359 23.959 11.2734 23.4199 10.707 23.1504 9.95117 23.1504 9.00586V8.80664C23.1504 8.17773 23.2695 7.61719 23.5078 7.125 23.75 6.62891 24.0859 6.24219 24.5156 5.96484 24.9492 5.68359 25.418 5.54297 25.9219 5.54297 26.7461 5.54297 27.3867 5.81445 27.8438 6.35742 28.3008 6.90039 28.5293 7.67773 28.5293 8.68945V9.14062H24.2344C24.25 9.76562 24.4316 10.2715 24.7793 10.6582 25.1309 11.041 25.5762 11.2324 26.1152 11.2324 26.498 11.2324 26.8223 11.1543 27.0879 10.998 27.3535 10.8418 27.5859 10.6348 27.7852 10.377L28.4473 10.8926C27.916 11.709 27.1191 12.1172 26.0566 12.1172ZM25.9219 6.43359C25.4844 6.43359 25.1172 6.59375 24.8203 6.91406 24.5234 7.23047 24.3398 7.67578 24.2695 8.25H27.4453V8.16797C27.4141 7.61719 27.2656 7.19141 27 6.89062 26.7344 6.58594 26.375 6.43359 25.9219 6.43359ZM32.8535 6.63281C32.6895 6.60547 32.5117 6.5918 32.3203 6.5918 31.6094 6.5918 31.127 6.89453 30.873 7.5V12H29.7891V5.66016H30.8438L30.8613 6.39258C31.2168 5.82617 31.7207 5.54297 32.373 5.54297 32.584 5.54297 32.7441 5.57031 32.8535 5.625V6.63281ZM36.3691 12.1172C35.5098 12.1172 34.8105 11.8359 34.2715 11.2734 33.7324 10.707 33.4629 9.95117 33.4629 9.00586V8.80664C33.4629 8.17773 33.582 7.61719 33.8203 7.125 34.0625 6.62891 34.3984 6.24219 34.8281 5.96484 35.2617 5.68359 35.7305 5.54297 36.2344 5.54297 37.0586 5.54297 37.6992 5.81445 38.1562 6.35742 38.6133 6.90039 38.8418 7.67773 38.8418 8.68945V9.14062H34.5469C34.5625 9.76562 34.7441 10.2715 35.0918 10.6582 35.4434 11.041 35.8887 11.2324 36.4277 11.2324 36.8105 11.2324 37.1348 11.1543 37.4004 10.998 37.666 10.8418 37.8984 10.6348 38.0977 10.377L38.7598 10.8926C38.2285 11.709 37.4316 12.1172 36.3691 12.1172ZM36.2344 6.43359C35.7969 6.43359 35.4297 6.59375 35.1328 6.91406 34.8359 7.23047 34.6523 7.67578 34.582 8.25H37.7578V8.16797C37.7266 7.61719 37.5781 7.19141 37.3125 6.89062 37.0469 6.58594 36.6875 6.43359 36.2344 6.43359ZM39.8379 8.77734C39.8379 7.80469 40.0684 7.02344 40.5293 6.43359 40.9902 5.83984 41.5938 5.54297 42.3398 5.54297 43.082 5.54297 43.6699 5.79688 44.1035 6.30469V3H45.1875V12H44.1914L44.1387 11.3203C43.7051 11.8516 43.1016 12.1172 42.3281 12.1172 41.5938 12.1172 40.9941 11.8164 40.5293 11.2148 40.0684 10.6133 39.8379 9.82812 39.8379 8.85938V8.77734ZM40.9219 8.90039C40.9219 9.61914 41.0703 10.1816 41.3672 10.5879 41.6641 10.9941 42.0742 11.1973 42.5977 11.1973 43.2852 11.1973 43.7871 10.8887 44.1035 10.2715V7.35938C43.7793 6.76172 43.2812 6.46289 42.6094 6.46289 42.0781 6.46289 41.6641 6.66797 41.3672 7.07812 41.0703 7.48828 40.9219 8.0957 40.9219 8.90039ZM55.2188 8.90039C55.2188 9.86914 54.9961 10.6484 54.5508 11.2383 54.1055 11.8242 53.5078 12.1172 52.7578 12.1172 51.957 12.1172 51.3379 11.834 50.9004 11.2676L50.8477 12H49.8516V3H50.9355V6.35742C51.373 5.81445 51.9766 5.54297 52.7461 5.54297 53.5156 5.54297 54.1191 5.83398 54.5566 6.41602 54.998 6.99805 55.2188 7.79492 55.2188 8.80664V8.90039ZM54.1348 8.77734C54.1348 8.03906 53.9922 7.46875 53.707 7.06641 53.4219 6.66406 53.0117 6.46289 52.4766 6.46289 51.7617 6.46289 51.248 6.79492 50.9355 7.45898V10.2012C51.2676 10.8652 51.7852 11.1973 52.4883 11.1973 53.0078 11.1973 53.4121 10.9961 53.7012 10.5938 53.9902 10.1914 54.1348 9.58594 54.1348 8.77734ZM58.5938 10.4121 60.0703 5.66016H61.2305L58.6816 12.9785C58.2871 14.0332 57.6602 14.5605 56.8008 14.5605L56.5957 14.543 56.1914 14.4668V13.5879L56.4844 13.6113C56.8516 13.6113 57.1367 13.5371 57.3398 13.3887 57.5469 13.2402 57.7168 12.9688 57.8496 12.5742L58.0898 11.9297 55.8281 5.66016H57.0117L58.5938 10.4121Z"/></g></svg>

<svg width="175" height="16" fill="none" xmlns="http://www.w3.org/2000/svg"><path fill-rule="evenodd" clip-rule="evenodd" d="M128.789 4.794c-.738 0-1.766.522-2.056 1.333h-.058V4.903H125.4V12h1.333V8.184c0-1.304.927-2.071 1.839-2.071.29 0 .522.028.71.1l.507-1.244c-.275-.116-.565-.175-1-.175zM152.801 1.46h1.332V12h-1.332V1.46zM148.658 4.794c-1.433 0-2.767.8-2.767 2.05 0 1.21 1.209 1.757 1.841 1.911l1.432.338c.731.182.982.562.982.913 0 .575-.617.952-1.418.952-.829 0-1.544-.404-1.909-1.293l-1.152.478c.407 1 1.39 1.984 3.048 1.984 1.615 0 2.752-.941 2.752-2.163 0-.843-.575-1.686-1.938-2.01l-1.404-.323c-.548-.126-.912-.364-.912-.8 0-.562.672-.868 1.403-.868.674 0 1.347.268 1.615.914l1.123-.464c-.421-1.054-1.502-1.62-2.696-1.62zM158.579 10.929c-.675 0-1.508-.348-1.508-1.078 0-.632.608-1.322 1.971-1.322 1.096 0 1.625.409 1.625.409 0 1.124-1.063 1.99-2.088 1.99zm.28-6.135c-1.728 0-2.701 1.006-2.94 1.638l1.18.506c.239-.646 1.072-.946 1.788-.946.97 0 1.78.602 1.78 1.693v.198c-.268-.155-.922-.422-1.85-.422-1.615 0-3.116.803-3.116 2.362 0 1.433 1.262 2.304 2.666 2.304 1.181 0 1.864-.636 2.244-1.212h.056V12h1.255V7.744c0-1.939-1.377-2.95-3.063-2.95zM133.323 10.929c-.674 0-1.508-.348-1.508-1.078 0-.632.609-1.322 1.972-1.322 1.095 0 1.624.409 1.624.409 0 1.124-1.062 1.99-2.088 1.99zm.281-6.135c-1.728 0-2.702 1.006-2.941 1.638l1.18.506c.24-.646 1.072-.946 1.789-.946.969 0 1.779.602 1.779 1.693v.198c-.267-.155-.922-.422-1.85-.422-1.615 0-3.115.803-3.115 2.362 0 1.433 1.261 2.304 2.666 2.304 1.18 0 1.863-.636 2.243-1.212h.056V12h1.256V7.744c0-1.939-1.377-2.95-3.063-2.95zM169.398 7.623c.257-1.003 1.027-1.631 1.998-1.631 1.498 0 2.011 1.035 2.054 1.631h-4.052zm2.026-2.83c-2.054 0-3.424 1.714-3.424 3.668 0 2.079 1.427 3.666 3.567 3.666 1.612 0 2.64-.9 3.053-1.882l-1.17-.478c-.371.872-1.141 1.162-1.912 1.162-1.084 0-2.154-.768-2.225-2.222h5.521s.015-.148.015-.246c0-2.22-1.342-3.667-3.425-3.667zM141.778 4.794c-.971 0-1.869.565-2.245 1.216h-.058V4.903H138.2V12h1.333V8.197c0-1.086.71-2.187 1.868-2.187 1.014 0 1.753.493 1.753 1.97V12h1.333V7.778c0-1.753-.898-2.984-2.709-2.984zM165.399 2.794h-1.332v2.109h-1.246V6.13h1.246v3.723c0 1.449.796 2.274 2.288 2.274.449 0 .768-.058 1.072-.188l-.463-1.144a1.352 1.352 0 01-.609.116c-.622 0-.956-.362-.956-1.16V6.13h1.738V4.903h-1.738V2.794zM124.95 1.46h-7.217v1.367h2.934v9.167h1.35V2.827h2.933V1.461zM72.16 5.586v1.639h3.922c-.117.922-.425 1.595-.893 2.063-.571.57-1.464 1.2-3.029 1.2-2.415 0-4.303-1.946-4.303-4.36 0-2.415 1.888-4.361 4.303-4.361 1.302 0 2.253.512 2.956 1.17l1.156-1.156C75.292.845 73.989.127 72.16.127c-3.307 0-6.088 2.693-6.088 6 0 3.308 2.78 6 6.088 6 1.785 0 3.131-.585 4.185-1.682 1.083-1.084 1.42-2.606 1.42-3.835 0-.38-.03-.731-.088-1.024H72.16zM82.667 4.255c-2.142 0-3.888 1.628-3.888 3.872 0 2.23 1.746 3.873 3.888 3.873s3.887-1.643 3.887-3.873c0-2.244-1.745-3.872-3.887-3.872zm0 6.219c-1.174 0-2.186-.968-2.186-2.347 0-1.393 1.012-2.347 2.186-2.347 1.173 0 2.186.954 2.186 2.347 0 1.379-1.013 2.347-2.186 2.347zM101.72 5.12h-.059c-.382-.455-1.115-.865-2.039-.865C97.686 4.255 96 5.94 96 8.127 96 10.297 97.686 12 99.622 12c.924 0 1.657-.41 2.039-.88h.059v.541c0 1.482-.792 2.274-2.069 2.274-1.041 0-1.686-.748-1.95-1.38l-1.482.617c.426 1.027 1.555 2.289 3.432 2.289 1.996 0 3.682-1.174 3.682-4.034V4.454h-1.613v.667zm-1.95 5.354c-1.174 0-2.068-.997-2.068-2.347 0-1.364.894-2.347 2.067-2.347 1.16 0 2.068.998 2.068 2.362 0 1.35-.908 2.332-2.068 2.332zM91.333 4.255c-2.141 0-3.887 1.628-3.887 3.872 0 2.23 1.746 3.873 3.887 3.873 2.142 0 3.888-1.643 3.888-3.873 0-2.244-1.746-3.872-3.888-3.872zm0 6.219c-1.173 0-2.185-.968-2.185-2.347 0-1.393 1.012-2.347 2.185-2.347 1.174 0 2.186.954 2.186 2.347 0 1.379-1.012 2.347-2.186 2.347zM104.667.287h1.673V12h-1.673V.287zM111.51 10.474c-.865 0-1.481-.395-1.878-1.173l5.178-2.142-.176-.44c-.323-.865-1.305-2.464-3.315-2.464-1.995 0-3.652 1.57-3.652 3.872 0 2.172 1.642 3.873 3.843 3.873 1.775 0 2.801-1.085 3.227-1.717l-1.32-.88c-.44.646-1.042 1.07-1.907 1.07zm-.126-4.768c.689 0 1.272.35 1.467.854l-3.498 1.45c0-1.633 1.155-2.304 2.031-2.304z" fill="currentColor"/><g fill="currentColor"><path d="M6.176 8.9c0 .965-.22 1.743-.662 2.332-.442.59-1.04.885-1.793.885-.77 0-1.375-.244-1.817-.732v3.053H.82V5.66h.99l.053.703c.442-.547 1.055-.82 1.84-.82.762 0 1.363.287 1.805.861.445.575.668 1.373.668 2.397v.1zm-1.084-.123c0-.714-.153-1.279-.457-1.693-.305-.414-.723-.621-1.254-.621-.656 0-1.149.29-1.477.873v3.03c.325.577.82.866 1.489.866.52 0 .931-.205 1.236-.615.309-.414.463-1.027.463-1.84zM7.271 8.771c0-.62.122-1.18.364-1.675a2.758 2.758 0 011.02-1.149 2.79 2.79 0 011.493-.404c.864 0 1.561.299 2.092.896.535.598.803 1.393.803 2.385V8.9c0 .618-.12 1.172-.357 1.665a2.67 2.67 0 01-1.014 1.142c-.438.273-.942.41-1.512.41-.86 0-1.556-.299-2.092-.896-.53-.598-.797-1.389-.797-2.373V8.77zm1.09.13c0 .703.162 1.267.487 1.693.328.426.765.638 1.312.638.55 0 .988-.214 1.313-.644.324-.434.486-1.04.486-1.817 0-.695-.166-1.257-.498-1.687a1.564 1.564 0 00-1.313-.65c-.535 0-.966.212-1.294.638-.329.426-.493 1.035-.493 1.828zM20.016 10.506l1.218-4.846h1.084L20.473 12h-.88l-1.54-4.805-1.5 4.805h-.88l-1.839-6.34h1.078l1.248 4.746 1.477-4.746h.873l1.506 4.846zM26.057 12.117c-.86 0-1.559-.281-2.098-.844-.54-.566-.809-1.322-.809-2.267v-.2c0-.628.12-1.189.358-1.681a2.814 2.814 0 011.008-1.16 2.535 2.535 0 011.406-.422c.824 0 1.465.271 1.922.814.457.543.685 1.32.685 2.332v.452h-4.295c.016.625.198 1.13.545 1.517.352.383.797.574 1.336.574.383 0 .707-.078.973-.234.265-.156.498-.363.697-.621l.662.516c-.531.816-1.328 1.224-2.39 1.224zm-.135-5.683c-.438 0-.805.16-1.102.48-.297.316-.48.762-.55 1.336h3.175v-.082c-.03-.55-.18-.977-.445-1.277-.266-.305-.625-.457-1.078-.457zM32.853 6.633a3.248 3.248 0 00-.533-.041c-.71 0-1.193.303-1.447.908V12h-1.084V5.66h1.055l.017.733c.356-.567.86-.85 1.512-.85.211 0 .371.027.48.082v1.008zM36.37 12.117c-.86 0-1.56-.281-2.098-.844-.54-.566-.81-1.322-.81-2.267v-.2c0-.628.12-1.189.358-1.681a2.814 2.814 0 011.008-1.16 2.535 2.535 0 011.406-.422c.825 0 1.465.271 1.922.814.457.543.686 1.32.686 2.332v.452h-4.295c.016.625.197 1.13.545 1.517.351.383.797.574 1.336.574.383 0 .707-.078.972-.234.266-.156.498-.363.698-.621l.662.516c-.532.816-1.328 1.224-2.39 1.224zm-.136-5.683c-.437 0-.804.16-1.101.48-.297.316-.48.762-.551 1.336h3.176v-.082c-.031-.55-.18-.977-.446-1.277-.265-.305-.624-.457-1.078-.457zM39.838 8.777c0-.972.23-1.754.691-2.343.461-.594 1.065-.891 1.81-.891.743 0 1.33.254 1.764.762V3h1.084v9h-.996l-.052-.68c-.434.532-1.037.797-1.81.797-.735 0-1.335-.3-1.8-.902-.46-.602-.691-1.387-.691-2.356v-.082zm1.084.123c0 .72.148 1.282.445 1.688.297.406.707.61 1.23.61.688 0 1.19-.31 1.506-.927V7.36c-.324-.597-.822-.896-1.494-.896-.53 0-.945.205-1.242.615-.297.41-.445 1.018-.445 1.822zM55.219 8.9c0 .97-.223 1.748-.668 2.338-.446.586-1.043.88-1.793.88-.801 0-1.42-.284-1.858-.85l-.052.732h-.996V3h1.084v3.357c.437-.543 1.04-.814 1.81-.814s1.373.291 1.81.873c.442.582.663 1.379.663 2.39V8.9zm-1.084-.123c0-.738-.143-1.308-.428-1.71-.285-.403-.695-.604-1.23-.604-.715 0-1.229.332-1.541.996v2.742c.332.664.85.996 1.552.996.52 0 .924-.2 1.213-.603.29-.403.434-1.008.434-1.817zM58.594 10.412L60.07 5.66h1.16l-2.548 7.319c-.395 1.054-1.022 1.582-1.881 1.582l-.205-.018-.405-.076v-.88l.293.024c.368 0 .653-.074.856-.222.207-.149.377-.42.51-.815l.24-.644-2.262-6.27h1.184l1.582 4.752z"/></g></svg>
